assets/icons/utility/textarea.svg

<?xml version="1.0"?><svg xmlns="http://www.w3.org/2000/svg" width="52" height="52" viewBox="0 0 52 52"><path fill="#fff" d="m44.8 49.5h-37.6c-2.6 0-4.7-2.1-4.7-4.7v-37.6c0-2.6 2.1-4.7 4.7-4.7h37.6c2.6 0 4.7 2.1 4.7 4.7v37.6c0 2.6-2.1 4.7-4.7 4.7z m-36-39.2v31.3c0 0.9 0.7 1.6 1.6 1.6h31.3c0.9 0 1.6-0.7 1.6-1.6v-31.3c0-0.9-0.7-1.6-1.6-1.6h-31.3c-0.9 0.1-1.6 0.8-1.6 1.6z m26.5 16.7c0.8 0 1.6 0.7 1.6 1.6v6.8c0 0.9-0.7 1.6-1.6 1.6h-7.2c-0.9 0-1.5-0.7-1.6-1.6 0-0.6 0.3-1 0.6-1.4l1.5-1.5c1-1 2.1-1.9 3.1-2.8 0.7-0.7 1.4-1.3 2.2-2 0.2-0.2 0.4-0.4 0.6-0.5 0.4-0.2 0.6-0.2 0.8-0.2z"></path></svg>

<svg xmlns="http://www.w3.org/2000/svg" x="0px" y="0px"
	 width="52px" height="52px" viewBox="0 0 52 52" enable-background="new 0 0 52 52" xml:space="preserve">
<path fill="#FFFFFF" d="M44.8,49.5H7.2c-2.6,0-4.7-2.1-4.7-4.7V7.2c0-2.6,2.1-4.7,4.7-4.7h37.6c2.6,0,4.7,2.1,4.7,4.7v37.6
	C49.5,47.4,47.4,49.5,44.8,49.5z M8.8,10.3v31.3c0,0.9,0.7,1.6,1.6,1.6h31.3c0.9,0,1.6-0.7,1.6-1.6V10.3c0-0.9-0.7-1.6-1.6-1.6H10.4
	C9.5,8.8,8.8,9.5,8.8,10.3z"/>
<path fill="#FFFFFF" d="M35.3,27c0.8,0,1.6,0.7,1.6,1.6v6.8c0,0.9-0.7,1.6-1.6,1.6h-7.2c-0.9,0-1.5-0.7-1.6-1.6c0-0.6,0.3-1,0.6-1.4
	c0.5-0.5,1-1,1.5-1.5c1-1,2.1-1.9,3.1-2.8c0.7-0.7,1.4-1.3,2.2-2c0.2-0.2,0.4-0.4,0.6-0.5C34.9,27,35.1,27,35.3,27z"/>
</svg>
